apps/symbolic/utilities-terminal-symbolic.svg

<?xml version="1.0" encoding="UTF-8" standalone="no"?>
<!-- Created with Inkscape (http://www.inkscape.org/) -->

<svg
   xmlns:dc="http://purl.org/dc/elements/1.1/"
   xmlns:cc="http://creativecommons.org/ns#"
   xmlns:rdf="http://www.w3.org/1999/02/22-rdf-syntax-ns#"
   xmlns:svg="http://www.w3.org/2000/svg"
   xmlns="http://www.w3.org/2000/svg"
   xmlns:sodipodi="http://sodipodi.sourceforge.net/DTD/sodipodi-0.dtd"
   xmlns:inkscape="http://www.inkscape.org/namespaces/inkscape"
   id="svg7384"
   height="24"
   width="24"
   version="1.1"
   inkscape:version="0.92.1 r15371"
   sodipodi:docname="utilities-terminal-symbolic.svg">
  <defs
     id="defs11" />
  <sodipodi:namedview
     pagecolor="#ffffff"
     bordercolor="#666666"
     borderopacity="1"
     objecttolerance="10"
     gridtolerance="10"
     guidetolerance="10"
     inkscape:pageopacity="0"
     inkscape:pageshadow="2"
     inkscape:window-width="640"
     inkscape:window-height="480"
     id="namedview9"
     showgrid="false"
     inkscape:zoom="9.4843752"
     inkscape:cx="19.896989"
     inkscape:cy="5.5559747"
     inkscape:current-layer="svg7384" />
  <metadata
     id="metadata90">
    <rdf:RDF>
      <cc:Work
         rdf:about="">
        <dc:format>image/svg+xml</dc:format>
        <dc:type
           rdf:resource="http://purl.org/dc/dcmitype/StillImage" />
        <dc:title>Gnome Symbolic Icon Theme</dc:title>
      </cc:Work>
    </rdf:RDF>
  </metadata>
  <title
     id="title9167">Gnome Symbolic Icon Theme</title>
  <path
     style="opacity:1;fill:#bebebe;fill-opacity:1;fill-rule:nonzero;stroke:none;stroke-width:1.94356656;stroke-linecap:butt;stroke-linejoin:round;stroke-miterlimit:4;stroke-dasharray:none;stroke-dashoffset:0;stroke-opacity:1"
     d="M 3.929688,5.0000002 C 3.414259,5.0000002 3,5.4532971 3,6.0156252 V 17.984375 C 3,18.546703 3.414259,19 3.929688,19 H 20.070312 C 20.585741,19 21,18.546703 21,17.984375 V 6.0156252 c 0,-0.5623281 -0.414259,-1.015625 -0.929688,-1.015625 z m 2.28125,2.5078125 3,3.0000003 -3,3 L 5.505859,12.796875 7.796875,10.507813 5.505859,8.2128908 Z M 9.792969,12.25586 h 3 v 1 h -3 z"
     id="rect4485"
     inkscape:connector-curvature="0" />
</svg>

<svg xmlns="http://www.w3.org/2000/svg" viewBox="0 0 24 24">
  <path fill="#bebebe" d="M3.93 5C3.414 5 3 5.453 3 6.016v11.968c0 .563.414 1.016.93 1.016h16.14c.516 0 .93-.453.93-1.016V6.016C21 5.453 20.586 5 20.07 5zm2.28 2.508l3 3-3 3-.704-.711 2.29-2.29-2.29-2.294zm3.583 4.748h3v1h-3z"/>
</svg>
